packages/assets/static/images/icons/test-tube.svg

<svg width="24" height="24" viewBox="0 0 24 24" xmlns="http://www.w3.org/2000/svg">
<path d="M21.9056 8.09448L16.2806 2.46948C16.2109 2.39974 16.1282 2.34442 16.0372 2.30668C15.9461 2.26894 15.8485 2.24951 15.7499 2.24951C15.6514 2.24951 15.5538 2.26894 15.4627 2.30668C15.3717 2.34442 15.289 2.39974 15.2193 2.46948L3.10401 14.5848C2.31681 15.372 1.87457 16.4397 1.87457 17.5529C1.87457 18.6662 2.31681 19.7338 3.10401 20.521C3.89121 21.3082 4.95887 21.7505 6.07213 21.7505C7.1854 21.7505 8.25307 21.3082 9.04026 20.521L19.5299 10.0314L21.6121 9.3376C21.7335 9.29723 21.8425 9.2265 21.9289 9.13211C22.0152 9.03773 22.0759 8.92284 22.1053 8.79836C22.1347 8.67388 22.1318 8.54394 22.0969 8.42091C22.0619 8.29787 21.996 8.18583 21.9056 8.09541V8.09448ZM7.97901 19.4598C7.47015 19.9502 6.78913 20.2213 6.08244 20.2148C5.37575 20.2083 4.69985 19.9247 4.20012 19.4249C3.70039 18.9252 3.41677 18.2493 3.41025 17.5426C3.40373 16.8359 3.67484 16.1549 4.16526 15.646L6.86526 12.946C7.65932 12.6742 8.90432 12.571 10.5281 13.4148C11.5218 13.9342 12.4199 14.1648 13.2056 14.2332L7.97901 19.4598ZM18.8878 8.66354C18.7772 8.70025 18.6768 8.7622 18.5943 8.84448L14.8846 12.5542C14.0906 12.826 12.8456 12.9292 11.2218 12.0854C10.2281 11.566 9.32995 11.3354 8.54432 11.267L15.7499 4.06041L19.9865 8.29698L18.8878 8.66354Z"/>
</svg>

<svg viewBox="0 0 24 24" xmlns="http://www.w3.org/2000/svg" aria-hidden="true" fill="currentColor"><path d="M21.906 8.094 16.28 2.47a.75.75 0 0 0-1.062 0L3.104 14.585A4.198 4.198 0 1 0 9.04 20.52l10.49-10.49 2.082-.693a.75.75 0 0 0 .294-1.243M7.979 19.46a2.697 2.697 0 0 1-3.814-3.814l2.7-2.7c.794-.272 2.04-.375 3.663.469.994.52 1.892.75 2.678.818zM18.888 8.664a.75.75 0 0 0-.294.18l-3.71 3.71c-.793.272-2.038.375-3.662-.469-.994-.519-1.892-.75-2.678-.818L15.75 4.06l4.236 4.237z"/></svg>
